X:5
%%scale 0.65
T:Ite in pace suspir fieri
C: B. Trombocino
M:C|
L:1/2
Q:1/1=90
K:Eb
V:1
c2 c2 | c2 G2 | A G A2 | G2 G2 | AA GF | F2 A2 | G4 | F2 z2 |
w:I-te~in  | pa-ce sus_pir fie-ri Ch d'af-fa-ni~hor mai son fo-ra
c3 B/A/| G2 B2 | A3/ G/ F2 | =E2 E2 | C2 E2 | D2 E>D | CE D2 | C2 C2 |
